!!!OTL: Da zu Mitterfasten es geschah
!!!ARE: Europa, Mitteleuropa, Deutschland
!!!SCT: L0060
!!!YEM: Copyright 1995, estate of Helmut Schaffrath.
**kern
*ICvox
*Ivox
*M4/4
*k[b-]
*d:
{2d
2g
=1
4a
4g
4e
4fn
=2
2d
4e
4fn
=3
2g
4r}
{4d
=4
2cn
2g
=5
2a
2fn
=6
2g
2g
=7
2fn
4r}
{4e
=8
2fn
2g
=9
2fn
4d
4e
=10
4e
4cn
4B
4e
=11
4fn
8d
8cn
2B
=12
1A}
==
!!!AGN: Lied
!! Hs. des 15. Jh.
!!!ONB: ESAC (Essen Associative Code) Database: ERK5
!!!AMT: simple quadruple
!!!AIN: vox
!!!EED: Helmut Schaffrath
!!!EEV: 1.0
*-
